!!!!SEGMENT: pl-wumfc--n28541--006_moniuszko-stanislaw--verbum-nobile-5-duettino.krn
!!!cenid: 18xx:4212
!!!COM: Moniuszko, Stanisław
!!!COM-rismID: pe30008351
!!!CDT: 1819/05/05-1872/06/04
!!!CNT: Polish
!!!GTL: Verbum nobile
!!!OTL: 5. Duettino
!!!OMV: 006
!!!PDT:
!!!AGN:
!!!SMS-siglum: PL-Wumfc
!!!SMS-shelfmark: N28541
!!!SMS-shelfwork: 006-006 G
!!!SMS-variant:
!!!SMS-altvar:
!!!NIFC-rismSourceID: 1001152972
!!!NIFC-rismChildID: 1001152972
!!!NIFC-islandoraID: pl-wumfc:3225
!!!URL-pdf-islandora: https://repozytorium.nifc.pl/islandora/object/pl-wumfc:3225/datastream/PDF/view
!!!URL-scan: https://polish.musicsources.pl/pl/lokalizacje/galeria/druki-muzyczne/12012/22 @EN{Scan on Polish Music Sources Website} @PL{Skany w portalu Dziedzictwo Muzyki Polskiej w otwartym dostępie}
!!!ONB-nifc: Skany 0022-0027
!!!AIN: 1 barit 2 piano 1 soprn
!!!key: F
!!!OMD: Allegretto. [eighth] = 60.
**kern	**kern	**dynam	**kern	**text	**dynam	**kern	**text	**dynam
*part4	*part3	*part3	*part2	*part2	*part2	*part1	*part1	*part1
*staff4	*staff3	*	*staff2	*staff2	*	*staff1	*staff1	*
*IGacmp	*IGacmp	*	*IGsolo	*	*	*IGsolo	*	*
*ICklav	*ICklav	*	*ICvox	*	*	*ICvox	*	*
*Ipiano	*Ipiano	*	*Ibarit	*	*	*Isoprn	*	*
*I"Piano.	*I"Piano.	*	*I"[Stanisław.]	*	*	*I"[Zuzia.]	*	*
*I'	*I'	*	*I'	*	*	*I'	*	*
*clefF4	*clefG2	*	*clefG2	*	*	*clefG2	*	*
*	*	*	*ITrd8c12	*	*	*	*	*
*k[b-]	*k[b-]	*	*k[b-]	*	*	*k[b-]	*	*
*F:	*F:	*	*F:	*	*	*F:	*	*
*M3/8	*M3/8	*	*M3/8	*	*	*M3/8	*	*
=1	=1	=1	=1	=1	=1	=1	=1	=1
!	!	!	!	!	!	!	!	!
8r	8r	p	4.r	.	.	4.ryy	.	.
(8f\L	(8ff\L	.	.	.	.	.	.	.
8c\J	8cc\J	.	.	.	.	.	.	.
=2	=2	=2	=2	=2	=2	=2	=2	=2
8d\L	8dd\L	.	4.r	.	.	4.ryy	.	.
8f\	8ff\	.	.	.	.	.	.	.
8c\J	8cc\J	.	.	.	.	.	.	.
=3	=3	=3	=3	=3	=3	=3	=3	=3
8d\L	8dd\L	.	4.r	.	.	4.ryy	.	.
8A\	8a\	.	.	.	.	.	.	.
8c\J	8cc\J	.	.	.	.	.	.	.
=4	=4	=4	=4	=4	=4	=4	=4	=4
8G\L	8g/L	.	4.r	.	.	4.ryy	.	.
8A\	8a/	.	.	.	.	.	.	.
8C\J	8c/J	.	.	.	.	.	.	.
=5	=5	=5	=5	=5	=5	=5	=5	=5
4F 4FF/)	8f/)	.	4.r	.	.	4.ryy	.	.
.	8aL 8f 8c'/	.	.	.	.	.	.	.
8r	8aJ 8f 8c'/	.	.	.	.	.	.	.
=6	=6	=6	=6	=6	=6	=6	=6	=6
!	!	!	!LO:TX:a:t=Stanisław.	!	!	!	!	!
4F\	8r	.	8A/	Gdym	.	4.ryy	.	.
.	8b-L 8f 8c'/	.	8B-/	pra-	.	.	.	.
8r	8aJ 8f 8c'/	.	8A/	-wie	.	.	.	.
!!linebreak:original
=7	=7	=7	=7	=7	=7	=7	=7	=7
*	*^	*	*	*	*	*	*	*
4FF/	8.cc^/L	8rc	.	4.c\	już	.	4.ryy	.	.
.	.	8fL 8c\	.	.	.	.	.	.	.
.	16b-/K	.	.	.	.	.	.	.	.
8r	8a/J	8fJ 8c\	.	.	.	.	.	.	.
*	*v	*v	*	*	*	*	*	*	*
=8	=8	=8	=8	=8	=8	=8	=8	=8
4F\	8r	.	8A/	z tém	.	4.ryy	.	.
.	8gL 8c 8A'/	.	8G/	ży-	.	.	.	.
8r	8fJ 8c 8A'/	.	8F/	-ciem	.	.	.	.
=9	=9	=9	=9	=9	=9	=9	=9	=9
4GG/	8r	.	4F/	ho-	.	4.ryy	.	.
.	8fL 8c 8B-'/	.	.	.	.	.	.	.
8r	8eJ 8c 8B-'/	.	8E/	-żem	.	.	.	.
=10	=10	=10	=10	=10	=10	=10	=10	=10
4G\	8g^/L	.	8G/	żeg-	.	4.ryy	.	.
.	8g 8d 8B-'/	.	8D/	-nał	.	.	.	.
8r	8gJ 8e 8B-'/	.	8E/	się	.	.	.	.
=11	=11	=11	=11	=11	=11	=11	=11	=11
4C/	8r	.	4C/	łzą,	.	4.ryy	.	.
.	8gL 8e 8B-'/	.	.	.	.	.	.	.
8r	8b-J 8g 8e 8c'/	.	8r	.	.	.	.	.
!!pagebreak:original
=12	=12	=12	=12	=12	=12	=12	=12	=12
4C 4CC/	(8b-^>/L	.	4.r	.	.	4.ryy	.	.
.	8a 8e 8B-'/)	.	.	.	.	.	.	.
8r	8gJ 8e 8B-'/	.	.	.	.	.	.	.
=13	=13	=13	=13	=13	=13	=13	=13	=13
*	*^	*	*	*	*	*	*	*
4FF/	(4g#X/	8rc	.	4.r	.	.	4.ryy	.	.
.	.	8cL 8B-\	.	.	.	.	.	.	.
8r	8a:/)	8fJ: 8c: 8A\:	.	.	.	.	.	.	.
*	*v	*v	*	*	*	*	*	*	*
=14	=14	=14	=14	=14	=14	=14	=14	=14
4.F\	8a/L	.	8A/	jak	.	4.ryy	.	.
.	8b- 8f 8c'/	.	8B-/	a-	.	.	.	.
.	8aJ 8f 8c'/	.	8A/	-nioł	.	.	.	.
=15	=15	=15	=15	=15	=15	=15	=15	=15
4.AA/	8r	.	4.c\	stróż	.	4.ryy	.	.
.	8ccL 8f 8c'/	.	.	.	.	.	.	.
.	8ccJ 8f 8c'/	.	.	.	.	.	.	.
=16	=16	=16	=16	=16	=16	=16	=16	=16
4.C/	(>8a/L	.	8A/	nad	.	4.ryy	.	.
.	8g 8c 8A'/)	.	8.G/	mo-	.	.	.	.
.	8cJ 8A'/	.	.	.	.	.	.	.
.	.	.	16F/	-jem	.	.	.	.
=17	=17	=17	=17	=17	=17	=17	=17	=17
4.GG/	8r	.	4F/	ło-	.	4.ryy	.	.
.	8fL 8c 8B-'/	.	.	.	.	.	.	.
.	8fJ 8c 8B-'/	.	8E/	-żem	.	.	.	.
!!pagebreak:original
=18	=18	=18	=18	=18	=18	=18	=18	=18
4.C/	8r	.	8G/	kto	.	4.ryy	.	.
.	8gL 8d 8B-'/	.	8D/	czu-	.	.	.	.
.	8gJ 8e 8B-'/	.	8E/	-wał,	.	.	.	.
=19	=19	=19	=19	=19	=19	=19	=19	=19
4.EE/	8r	.	4C/	kto?	.	4.ryy	.	.
.	8cL 8B- 8G'/	.	.	.	.	.	.	.
.	8b-J 8g 8c'/	.	8r	.	.	.	.	.
=20	=20	=20	=20	=20	=20	=20	=20	=20
4.C 4.CC/	8b-\	.	4.r	.	.	4.ryy	.	.
.	(>16qqb-/LL	.	.	.	.	.	.	.
.	16qqcc/	.	.	.	.	.	.	.
.	16qqb-/JJ	.	.	.	.	.	.	.
.	8aL 8e 8B-/)	.	.	.	.	.	.	.
.	8gJ 8e 8B-/	.	.	.	.	.	.	.
=21	=21	=21	=21	=21	=21	=21	=21	=21
*	*^	*	*	*	*	*	*	*
4.FF/	4a/	8rc	.	4.r	.	.	4.ryy	.	.
.	.	8fL 8A\	.	.	.	.	.	.	.
.	8a/	8fJ 8c\	.	.	.	.	.	.	.
*	*v	*v	*	*	*	*	*	*	*
=22	=22	=22	=22	=22	=22	=22	=22	=22
4.F\	8r	.	8A/	wzniosł-	.	4.ryy	.	.
.	8aL 8d 8A/	.	8A/	-szy	.	.	.	.
.	8aJ 8d 8A/	.	8A/	o-	.	.	.	.
=23	=23	=23	=23	=23	=23	=23	=23	=23
4.E\	8r	.	4A^>/	-czę-	.	4.ryy	.	.
.	8aL 8d 8B-/	.	.	.	.	.	.	.
.	8gJ 8d 8B-/	.	8G/	-ta	.	.	.	.
!!linebreak:original
=24	=24	=24	=24	=24	=24	=24	=24	=24
4.E 4.AA/	8r	.	8G/	"O	.	4.ryy	.	.
.	8aL 8c#X 8A/	.	8.A^>/	Ma-	.	.	.	.
.	8eJ 8c# 8A/	.	.	.	.	.	.	.
.	.	.	16E/	-tko	.	.	.	.
=25	=25	=25	=25	=25	=25	=25	=25	=25
4D\	8r	.	4G/	świę-	.	4.ryy	.	.
.	8gL 8d 8A/	.	.	.	.	.	.	.
8r	8fJ 8d 8A/	.	8F/	-ta"	.	.	.	.
=26	=26	=26	=26	=26	=26	=26	=26	=26
4.D 4.DD/	8r	.	8B-^>/	kto	.	4.ryy	.	.
.	8fL 8B-/	.	8A/	szep-	.	.	.	.
.	8b-J 8g 8d 8B-/	.	8G/	-tał	.	.	.	.
=27	=27	=27	=27	=27	=27	=27	=27	=27
4.C 4.CC/	8r	.	4F^>/	"Ma-	.	4.ryy	.	.
.	8b-L 8f 8B-/	.	.	.	.	.	.	.
.	8b-J 8g 8e-X 8B-/	.	8E-X/	-tko!	.	.	.	.
=28	=28	=28	=28	=28	=28	=28	=28	=28
4.FF/	8r	.	8E-X/	u-	.	4.ryy	.	.
.	8aL 8f 8c/	.	8.F^>/	-li-	.	.	.	.
.	8aJ 8f 8c/	.	.	.	.	.	.	.
.	.	.	16C/	-tuj	.	.	.	.
!!linebreak:original
=29	=29	=29	=29	=29	=29	=29	=29	=29
4BB- 4BBB-/	8r	.	4D/	się."	.	4.ryy	.	.
.	8b-L 8f 8d/	.	.	.	.	.	.	.
8r	8b-J 8f 8d/	.	8r	.	.	.	.	.
=30	=30	=30	=30	=30	=30	=30	=30	=30
4.B-\	8r	<	8D/	Bła-	.	4.ryy	.	.
!	!	!	!	!	!LO:HP:a	!	!	!
.	8fL 8d/	.	8F/	-ga-	<	.	.	.
.	8b-J 8f 8d/	.	8B-/	-nie	.	.	.	.
=31	=31	=31	=31	=31	=31	=31	=31	=31
*	*^	*	*	*	*	*	*	*
4.A\	4dd/	8rc	.	4d\	two-	.	4.ryy	.	.
.	.	8gL 8e-X\	[	.	.	.	.	.	.
.	8cc/	8gJ 8e-\	.	8c\	-je	[	.	.	.
=32	=32	=32	=32	=32	=32	=32	=32	=32	=32
4.D\	8ee-X/L	8rc	f	8e-X^\	w nie-	.	4.ryy	.	.
.	8.dd/	8f#XL 8d\	>	8.d\	-bios	.	.	.	.
.	.	8f#J 8d\	.	.	.	.	.	.	.
.	16cc/Jk	.	.	16c\	pod-	.	.	.	.
=33	=33	=33	=33	=33	=33	=33	=33	=33	=33
4.G\	4b-/	8rc	]	4B-\	-wo-	.	4.ryy	.	.
.	.	8gL 8d\	.	.	.	.	.	.	.
.	8a/	8dJ 8B-\	.	8A/	-je	.	.	.	.
*	*v	*v	*	*	*	*	*	*	*
!!pagebreak:original
=34	=34	=34	=34	=34	=34	=34	=34	=34
4.BB-/	8g/L	p	8G/	do-	.	4.ryy	.	.
.	8f 8d-X 8B-/	.	8F/	-bieg-	.	.	.	.
.	8gJ 8f 8d- 8B-/	.	8G/	-ło,	.	.	.	.
=35	=35	=35	=35	=35	=35	=35	=35	=35
4.C/	8r	.	4A/	Bóg	.	4.ryy	.	.
.	8aL 8f 8c 8A/	.	.	.	.	.	.	.
.	8aJ 8f 8c/	.	8A/	tam	.	.	.	.
=36	=36	=36	=36	=36	=36	=36	=36	=36
*	*^	*	*	*	*	*	*	*
!	!	!	!	!	!	!LO:HP:a	!	!	!
8C'\L	16b-/LL	8rc	<	16B-\LL	przy-	<	4.ryy	.	.
.	16a/	.	.	16A\	.	.	.	.	.
8c\	16b-/	8gL 8e\	.	16B-\	.	.	.	.	.
.	16cc/	.	.	16c\JJ	.	.	.	.	.
8C'\J	16dd/	8b-J 8g\	.	16d\LL	-jął	.	.	.	.
.	16ee/JJ	.	[	16e\JJ	.	[	.	.	.
=37	=37	=37	=37	=37	=37	=37	=37	=37	=37
!	!	!	!	!	!	!LO:DY:a	!	!	!
8FL 8C 8FF/	[4.ff/	8aL 8f\	f	[4.f\	je_	f	4.ryy	.	.
8F 8C 8AA/	.	8cc 8f\	.	.	.	.	.	.	.
8FJ 8C 8FF/	.	8aJ 8f\	.	.	.	.	.	.	.
=38	=38	=38	=38	=38	=38	=38	=38	=38	=38
8FL 8BB-\	16ff/LL]	8a-XL 8f\	mf	8f\]	.	.	4.ryy	.	.
.	16dd/	.	.	.	.	.	.	.	.
8F 8BB-\	16ff/	8a-\	.	8d\	mo-	.	.	.	.
.	16cc/	.	.	.	.	.	.	.	.
8B-J 8F 8BB-\	16dd/	8a-\J	.	8B-\	-dły	.	.	.	.
.	16b-/JJ	.	.	.	.	.	.	.	.
!!pagebreak:original
=39	=39	=39	=39	=39	=39	=39	=39	=39	=39
8B-L 8E-X\	[4.ee-X/	8g\L	sf	[4.e-X\	twe_	.	4.ryy	.	.
8B- 8G\	.	8b- 8e-X\	.	.	.	.	.	.	.
8B-J 8E-\	.	8gJ 8e-\	.	.	.	.	.	.	.
=40	=40	=40	=40	=40	=40	=40	=40	=40	=40
8A-X\L	16ee-/LL]	8g-X\L	mf	8e-\]	.	.	4.ryy	.	.
.	16cc/	.	.	.	.	.	.	.	.
8A-\	16ee-X/	8g-\	.	8c\	przy-	.	.	.	.
.	16b-/	.	.	.	.	.	.	.	.
8A-\J	16cc/	8g-\J	.	8A-X/	-jął	.	.	.	.
.	16a-X/JJ	.	.	.	.	.	.	.	.
=41	=41	=41	=41	=41	=41	=41	=41	=41	=41
8A-XL 8D-X\	[4.dd-X/	8f\L	sf	[4.d-X\	tam_	.	4.ryy	.	.
8d-X 8F\	.	8a-X\	.	.	.	.	.	.	.
8A-J 8D-\	.	8f\J	.	.	.	.	.	.	.
=42	=42	=42	=42	=42	=42	=42	=42	=42	=42
8GG\L	16dd-/LL]	4.f\	mf	8d-\]	.	.	4.ryy	.	.
.	16b-/	.	.	.	.	.	.	.	.
8d-X 8B- 8F\	16dd-X/	.	.	8B-\	mo-	.	.	.	.
.	16a-X/	.	.	.	.	.	.	.	.
8d-J 8B- 8F\	16b-/	.	.	8G/	-dły	.	.	.	.
.	16g/JJ	.	.	.	.	.	.	.	.
*	*v	*v	*	*	*	*	*	*	*
=43	=43	=43	=43	=43	=43	=43	=43	=43
!	!	!	!	!	!LO:HP:a	!	!	!
8AL 8C'\	8ccL 8f'/	<	8c\	twe	<	4.ryy	.	.
8G#X 8C'\	8bn 8f'/	.	8B\	Bóg	.	.	.	.
8AJ 8C'\	8ccJ 8f'/	[	8c\	tam	[	.	.	.
!!linebreak:original
=44	=44	=44	=44	=44	=44	=44	=44	=44
*ped	*	*	*	*	*	*	*	*
.	8qee/	.	8qe/	.	.	.	.	.
!	!	!	!	!	!LO:HP:a	!	!	!
8B-L 8Gn 8C/	(>4dd 4f;/	sf >	4d;\	przy-	>	4.ryy	.	.
16CC/K	.	.	.	.	.	.	.	.
16r;	.	.	.	.	.	.	.	.
8GJ 8C/	8cc 8e/	]]	8c\	-jął	]]	.	.	.
*Xped	*	*	*	*	*	*	*	*
=45	=45	=45	=45	=45	=45	=45	=45	=45
!	!	!LO:HP:t=di-mi-nu-en-do:ext=ud:problem:dynamics with extention lines	!	!	!	!	!	!
8FF\L	4f/)	>	4F/	je.	.	4.ryy	.	.
8c 8A 8F\	.	.	.	.	.	.	.	.
8cJ 8A 8F\	8r	.	8r	.	.	.	.	.
=46	=46	=46	=46	=46	=46	=46	=46	=46
*	*^	*	*	*	*	*	*	*
8cL 8A 8F\	8ff/L	4.ee-X 4.cc\	.	4.r	.	.	4.ryy	.	.
.	8qaa-X/	.	.	.	.	.	.	.	.
8c 8A 8F\	8gg-X/	.	.	.	.	.	.	.	.
8cJ 8A 8F\	8ff/J	.	.	.	.	.	.	.	.
=47	=47	=47	=47	=47	=47	=47	=47	=47	=47
8d-L 8B- 8F\	8ff/L	4.dd-X 4.b-\	.	4.r	.	.	4.ryy	.	.
.	8qaa-X/	.	.	.	.	.	.	.	.
8d- 8B- 8F\	8gg-X/	.	.	.	.	.	.	.	.
8d-J 8B- 8F\	8ff/J	.	.	.	.	.	.	.	.
=48	=48	=48	=48	=48	=48	=48	=48	=48	=48
.	8qff/	.	.	.	.	.	.	.	.
8g-XL 8F\	(8ee-X/L	8b-\L	.	4.r	.	.	4.ryy	.	.
8f 8F\	8dd-X/)	8b-\	.	.	.	.	.	.	.
8e-XJ 8F\	8cc'/J	8a\J	]	.	.	.	.	.	.
=49	=49	=49	=49	=49	=49	=49	=49	=49	=49
8dL 8F\	[4.ff/	8b-\L	.	4.r	.	.	4.ryy	.	.
8d-X 8F\	.	8f\	.	.	.	.	.	.	.
8cJ 8F 8E-X\	.	8aJ 8f\	.	.	.	.	.	.	.
*	*v	*v	*	*	*	*	*	*	*
!!linebreak:original
=50||	=50||	=50||	=50||	=50||	=50||	=50||	=50||	=50||
*k[b-e-a-d-g-]	*k[b-e-a-d-g-]	*	*k[b-e-a-d-g-]	*	*	*k[b-e-a-d-g-]	*	*
*b-:	*b-:	*	*b-:	*	*	*b-:	*	*
*	*^	*	*	*	*	*	*	*
!	!	!	!	!	!	!	!LO:TX:a:t=Zuzia.	!	!
8B-L 8D-\	8ff/]	8b- 8f\	p	4.ryy	.	.	8f/	To	.
8d- 8F\	8b-L 8f/	8rcyy	.	.	.	.	8b-\	świę-	.
8B-J 8D-\	8dd-J 8f/	8rcyy	.	.	.	.	8dd-\	-ty	.
*	*v	*v	*	*	*	*	*	*	*
=51	=51	=51	=51	=51	=51	=51	=51	=51
8BB-/	8ffL 8f\	.	4.ryy	.	.	4.ff\	dług	.
8d-L 8B-\	8b- 8f\	.	.	.	.	.	.	.
8d-J 8B-\	8ffJ 8f\	.	.	.	.	.	.	.
=52	=52	=52	=52	=52	=52	=52	=52	=52
8g-L 8B-\	8ee-L 8b-\	.	4.ryy	.	.	8ee-\	w złej	.
8g- 8B-\	8dd- 8b-\	.	.	.	.	8dd-\	bliź-	.
8g-J 8B-\	8ee-J 8b-\	.	.	.	.	8ee-\	-nich	.
=53	=53	=53	=53	=53	=53	=53	=53	=53
8d-L 8B-\	8ffL 8b-\	.	4.ryy	.	.	(4ff\	do-	.
8d- 8B-\	8ff 8f\	.	.	.	.	.	.	.
8d-J 8B-\	8b-J 8f\	.	.	.	.	8b-\)	-li	.
=54	=54	=54	=54	=54	=54	=54	=54	=54
8d-L 8B-\	8dd-L 8en'/	.	4.ryy	.	.	8dd-\	ra-	.
8d- 8B-\	8cc 8e'/	.	.	.	.	8cc\	-tu-	.
8d-J 8B-\	8b-J 8e'/	.	.	.	.	8b-\	-nek	.
=55	=55	=55	=55	=55	=55	=55	=55	=55
8d-L 8B-\	8f/L	.	4.ryy	.	.	4f/	nieść,	.
8d- 8B-\	8f/	.	.	.	.	.	.	.
8d-J 8B-\	8b-J 8f/	.	.	.	.	8r	.	.
!!pagebreak:original
=56	=56	=56	=56	=56	=56	=56	=56	=56
.	8qdd-/	.	.	.	.	.	.	.
8e-L 8An\	(>8ccL 8f/	.	4.ryy	.	.	4.r	.	.
8e- 8Gn\	8b- 8f/)	.	.	.	.	.	.	.
8e-J 8A\	8ccJ 8f/	.	.	.	.	.	.	.
=57	=57	=57	=57	=57	=57	=57	=57	=57
*	*^	*	*	*	*	*	*	*
8d-L 8B-\	4.dd-/	8f\L	.	4.ryy	.	.	4.r	.	.
8d- 8B-\	.	8f\	.	.	.	.	.	.	.
8d-J 8B-\	.	8f\J	.	.	.	.	.	.	.
*	*v	*v	*	*	*	*	*	*	*
=58	=58	=58	=58	=58	=58	=58	=58	=58
8d-L 8B-\	8f/L	.	4.ryy	.	.	8f/	Tak	.
8d- 8B-\	8b- 8f/	.	.	.	.	8b-\	ka-	.
8d-J 8B-\	8dd-J 8f/	.	.	.	.	8dd-\	-zał	.
=59	=59	=59	=59	=59	=59	=59	=59	=59
8d-L 8B-\	8ffL 8f\	.	4.ryy	.	.	4.ff\	Bóg	.
8d- 8B-\	8b- 8f\	.	.	.	.	.	.	.
8d-J 8B-\	8ffJ 8f\	.	.	.	.	.	.	.
=60	=60	=60	=60	=60	=60	=60	=60	=60
8cL 8B-\	8eenL 8gn\	.	4.ryy	.	.	8een\	i	.
8c 8B-\	8cc 8g\	.	.	.	.	8cc\	je-	.
8cJ 8B-\	8eeJ 8g\	.	.	.	.	8ee\	-go	.
=61	=61	=61	=61	=61	=61	=61	=61	=61
8d-L 8B-\	8ffL 8f\	.	4.ryy	.	.	4ff\	wo-	.
8d- 8B-\	8f\	.	.	.	.	.	.	.
8d-J 8B-\	8b-J 8f\	.	.	.	.	8b-\	-li	.
!!pagebreak:original
=62	=62	=62	=62	=62	=62	=62	=62	=62
*	*^	*	*	*	*	*	*	*
*	*	*^	*	*	*	*	*	*	*
8d-L 8B-\	8dd-/L	(<4.g-</	8en\L	.	4.ryy	.	.	8dd-\	niech	.
8d- 8B-\	8.cc/	.	8e\	.	.	.	.	8.cc\	bę-	.
8d-J 8B-\	.	.	8e\J	.	.	.	.	.	.	.
.	16b-/Jk	.	.	.	.	.	.	16b-\	-dzie	.
*	*	*v	*v	*	*	*	*	*	*	*
=63	=63	=63	=63	=63	=63	=63	=63	=63	=63
8d-L 8B-\	(4b-/	8f\L)	.	4.ryy	.	.	4b-\	cześć.	.
8d- 8B-\	.	8f\	.	.	.	.	.	.	.
8d-J 8B-\	8dd-/)	8f\J	.	.	.	.	8r	.	.
=64	=64	=64	=64	=64	=64	=64	=64	=64	=64
8B-L 8G-\	(8dd-/L	8f-X\L	.	4.ryy	.	.	4.r	.	.
8A- 8G-\	8cc-X/)	8f-\	.	.	.	.	.	.	.
8B-J 8G-\	8dd-'/J	8f-\J	.	.	.	.	.	.	.
=65	=65	=65	=65	=65	=65	=65	=65	=65	=65
8c-X\L	4.ee-/	8e-\L	.	4.ryy	.	.	4.r	.	.
8c-\	.	8g- 8e-\	.	.	.	.	.	.	.
8c-\J	.	8g-J 8e-\	.	.	.	.	.	.	.
*	*v	*v	*	*	*	*	*	*	*
=66	=66	=66	=66	=66	=66	=66	=66	=66
8e-L 8c-X\	8g-\L	.	4.ryy	.	.	8g-/	Każ-	.
8e- 8c-\	8cc-X 8g-\	.	.	.	.	8cc-X\	-dy	.
8e-J 8c-\	8ee-J 8g-\	.	.	.	.	8ee-\	wam	.
=67	=67	=67	=67	=67	=67	=67	=67	=67
8e-L 8c-X\	8gg-L 8cc-X 8g-\	.	4.ryy	.	.	4gg-\	w świe-	.
8e- 8c-\	8cc- 8g-\	.	.	.	.	.	.	.
8e-J 8c-\	8gg-J 8cc- 8g-\	.	.	.	.	8gg-\	-cie	.
!!linebreak:original
=68	=68	=68	=68	=68	=68	=68	=68	=68
8d-L 8c-X\	8ffL 8a-\	.	4.ryy	.	.	8ff\	po-	.
8d- 8c-\	8dd- 8a-\	.	.	.	.	8dd-\	-mógł-	.
8d-J 8c-\	8ffJ 8a-\	.	.	.	.	8ff\	-by	.
=69	=69	=69	=69	=69	=69	=69	=69	=69
8e-L 8c-X\	8gg-L 8g-\	.	4.ryy	.	.	4gg-\	prze-	.
8e- 8c-\	8g-\	.	.	.	.	.	.	.
8e-J 8c-\	8cc-XJ 8g-\	.	.	.	.	8cc-X\	-cie	.
=70	=70	=70	=70	=70	=70	=70	=70	=70
8c-XL 8F^\	8ee-L 8a-^\	.	4.ryy	.	.	8ee-\	kto	.
8d- 8F\	8dd- 8a-\	.	.	.	.	8dd-\	tu	.
8dnJ 8F\	8cc-XJ 8a-\	.	.	.	.	8cc-X\	ma	.
=71	=71	=71	=71	=71	=71	=71	=71	=71
8e-L 8G-\	8g-/L	.	4.ryy	.	.	4g-/	ser-	.
8E-\	8g-/	.	.	.	.	.	.	.
8C-X\J	8cc-XJ 8g- 8e-/	.	.	.	.	8cc-X\	-ce,	.
=72	=72	=72	=72	=72	=72	=72	=72	=72
.	8qee-/	.	.	.	.	8qee-/	.	.
8GG-\L	8dd-L 8f-X/	.	4.ryy	.	.	8dd-\	ser-	.
8A- 8G-\	8cc-X 8f-/	.	.	.	.	8cc-X\	-ce	.
8B-J 8G-\	8dd-J 8f-/	.	.	.	.	8dd-\	nie	.
=73	=73	=73	=73	=73	=73	=73	=73	=73
*	*^	*	*	*	*	*	*	*
8c-X\L	4.ee-/	8e-\L	<	4.ryy	.	.	4ee-\	głaz.	.
8c-\	.	8g- 8e-\	.	.	.	.	.	.	.
8c-\J	.	8g-J 8e-\	[	.	.	.	8r	.	.
*	*v	*v	*	*	*	*	*	*	*
!!linebreak:original
=74	=74	=74	=74	=74	=74	=74	=74	=74
!	!	!	!	!	!	!LO:TX:a:i:t=con anima	!	!LO:HP:a
8d-L 8B-\	8ff-XL 8gn\	mf <	4.ryy	.	.	8ff-X\	W tém	<
8d- 8B-\	8ff- 8g'\	.	.	.	.	8ff-\	co	.
8d-J 8A-\	8ff-J 8a-'\	[	.	.	.	8ff-\	się	[
=75	=75	=75	=75	=75	=75	=75	=75	=75
8d-L 8Gn'\	(8ff-XL 8b-^\	.	4.ryy	.	.	4ff-X^\	sta-	.
8d- 8G'\	8b-\)	.	.	.	.	.	.	.
8d-J 8G'\	8ee-J 8b-'\	.	.	.	.	8ee-\	-ło	.
=76	=76	=76	=76	=76	=76	=76	=76	=76
!	!	!	!	!	!	!	!	!LO:HP:a
8cL 8G-X'\	8ee-L 8an'\	<	4.ryy	.	.	8ee-\	za-	<
8c 8G-'\	8ee- 8a'\	.	.	.	.	8ee-\	-słu-	.
8cJ 8G-'\	8ee-J 8a'\	[	.	.	.	8ee-\	-gi	[
=77	=77	=77	=77	=77	=77	=77	=77	=77
8c-XL 8F\	(8ee-L 8a-X^\'	.	4.ryy	.	.	4ee-^\	ma-	.
8c- 8F\	8a-\)	.	.	.	.	.	.	.
8c-J 8F\	8ddnJ 8a-'\	.	.	.	.	8ddn\	-ło,	.
=78	=78	=78	=78	=78	=78	=78	=78	=78
8B-L 8En\	8dd-XL 8gn'\	.	4.ryy	.	.	8dd-X\	wdzięcz-	.
8B- 8E^\	8dd- 8g'^\	.	.	.	.	8dd-^\	-noś-	.
8cJ 8E\	8ccJ 8g'\	.	.	.	.	8cc\	-cią	.
!!pagebreak:original
=79	=79	=79	=79	=79	=79	=79	=79	=79
8d-L 8F\	8b-L 8f/	<	4.ryy	.	.	4b-\	wa-	.
8d- 8B-\	8b- 8f/	.	.	.	.	.	.	.
8d-J 8F\	8b-J 8f/	.	.	.	.	8b-\	-szą	.
=80	=80	=80	=80	=80	=80	=80	=80	=80
!	!	!	!	!	!	!LO:TX:a:i:t=rallent.	!	!
8B-L 8D-\	8b-L 8f/	.	4.ryy	.	.	16b-/LL	wsty-	.
!	!	!	!	!	!	!	!	!LO:HP:a
.	.	.	.	.	.	16an/JJ	.	<
8B- 8D-\	8b- 8f/	.	.	.	.	16b-\LL	-dzi-	.
.	.	.	.	.	.	16cc\JJ	.	.
8B-J 8BB-\	8dd-J 8f/	[	.	.	.	16dd-\LL	-cie	.
.	.	.	.	.	.	16ee-\JJ	.	[
*kcancel	*kcancel	*	*kcancel	*	*	*kcancel	*	*
=81||	=81||	=81||	=81||	=81||	=81||	=81||	=81||	=81||
*k[b-]	*k[b-]	*	*k[b-]	*	*	*k[b-]	*	*
*F:	*F:	*	*F:	*	*	*F:	*	*
*ped	*	*	*	*	*	*	*	*
!	!	!	!	!	!	!LO:TX:a:B:t=a tempo	!	!LO:DY:a
8F 8FF/	8ff 8cc 8a 8f/	sf	4.ryy	.	.	([4.ff\	nas_	fp
8cL 8F'\	8aL 8f'/	p	.	.	.	.	.	.
8cJ 8F'\	8aJ 8f'/	.	.	.	.	.	.	.
*Xped	*	*	*	*	*	*	*	*
=82	=82	=82	=82	=82	=82	=82	=82	=82
!	!	!	!	!	!	!LO:TX:a:i:t=più  lento:rj	!	!
(<4.B- 4.F 4.BB-\	4.a-X 4.d^/	.	4.ryy	.	.	16ff\LL]	.	.
.	.	.	.	.	.	16dd\	.	.
.	.	.	.	.	.	16ff\	.	.
.	.	.	.	.	.	16cc\	.	.
.	.	.	.	.	.	16dd\	.	.
.	.	.	.	.	.	16b-\JJ	.	.
=83	=83	=83	=83	=83	=83	=83	=83	=83
*ped	*	*	*	*	*	*	*	*
8EE-X\L)	8r	.	4.ryy	.	.	[4.ee-X\	.	.
8B- 8E-X\	8gL 8e-X/	.	.	.	.	.	.	.
8B-J 8E-\	8gJ 8e-/	.	.	.	.	.	.	.
*Xped	*	*	*	*	*	*	*	*
!!pagebreak:original
=84	=84	=84	=84	=84	=84	=84	=84	=84
(<4.A-X 4.E-X 4.AA-X\	4.g-X 4.c^/	.	4.ryy	.	.	16ee-\LL]	.	.
.	.	.	.	.	.	16cc\	.	.
.	.	.	.	.	.	16ee-X\	.	.
.	.	.	.	.	.	16b-\	.	.
.	.	.	.	.	.	16cc\	.	.
.	.	.	.	.	.	16a-X\JJ	.	.
=85	=85	=85	=85	=85	=85	=85	=85	=85
*ped	*	*	*	*	*	*	*	*
4D-X 4DD-X/)	8r	.	4.ryy	.	.	[4.dd-X\	.	.
.	8fL 8d-X 8A-X/	.	.	.	.	.	.	.
8r	8fJ 8d- 8A-/	.	.	.	.	.	.	.
*Xped	*	*	*	*	*	*	*	*
=86	=86	=86	=86	=86	=86	=86	=86	=86
4BB-/	8r	.	4.ryy	.	.	16dd-\])	.	.
.	.	.	.	.	.	16b-\LL	wdzięcz-	.
.	8fL 8d-X 8A-X/	.	.	.	.	16dd-X\	.	.
.	.	.	.	.	.	16a-X\JJ	.	.
8r	8dd-XJ 8b- 8f/	.	.	.	.	16b-/LL	-ność	.
.	.	.	.	.	.	16g/JJ	.	.
=87	=87	=87	=87	=87	=87	=87	=87	=87
!	!	!	!	!	!	!	!	!LO:HP:a
8AnL 8C'\	8ccL 8f'/	<	4.ryy	.	.	8cc\	wa-	<
8G#X 8C'\	8bn 8f'/	.	.	.	.	8bn\	-sza	.
8AJ 8C'\	8ccJ 8f'/	[	.	.	.	8cc\	za-	[
=88	=88	=88	=88	=88	=88	=88	=88	=88
.	.	.	.	.	.	8qee/	.	.
!	!	!	!	!	!	!	!	!LO:HP:a
4B- 4Gn 4C;\	(>4dd 4f;/	sf	4.ryy	.	.	4dd;\	-wsty-	>
8C 8CC/	8e 8B-/	.	.	.	.	8cc\	-dza	]
!!linebreak:original
=89	=89	=89	=89	=89	=89	=89	=89	=89
*ped	*	*	*	*	*	*	*	*
!	!LO:TX:b:i:t=con passione	!	!	!	!	!LO:TX:a:B:t=Tempo I.	!	!
8FL 8C 8FF'/	4f 4A/)	.	4.ryy	.	.	4f/	nas.	.
8F 8C 8FF'/	.	.	.	.	.	.	.	.
!	!	!LO:DY:rj:b=1	!	!	!	!	!	!
8FJ 8C 8FF'/	[8aa [8cc [8a^^\	f	.	.	.	8r	.	.
=90	=90	=90	=90	=90	=90	=90	=90	=90
8FL 8C 8FF/	8aa]L 8cc] 8a\]	.	4.ryy	.	.	4.r	.	.
*Xped	*	*	*	*	*	*	*	*
8F 8C 8FF/	8.gg 8.cc 8.g^\	.	.	.	.	.	.	.
8FJ 8C 8FF/	.	.	.	.	.	.	.	.
.	16ffJk 16cc 16a 16f\	.	.	.	.	.	.	.
=91	=91	=91	=91	=91	=91	=91	=91	=91
8GL 8C 8GG/	(4ff 4cc 4b- 4f^\	.	4.ryy	.	.	4.r	.	.
8G 8C 8GG/	.	.	.	.	.	.	.	.
8GJ 8C 8GG/	8ee 8cc 8b- 8e\)	.	.	.	.	.	.	.
=92	=92	=92	=92	=92	=92	=92	=92	=92
8GL 8C 8GG/	8ffL 8cc 8b- 8f'/	.	4.ryy	.	.	4.r	.	.
8G 8C 8GG/	8.ee 8.cc 8.e^/	.	.	.	.	.	.	.
8GJ 8C 8GG/	.	.	.	.	.	.	.	.
.	16ddJk 16d/	.	.	.	.	.	.	.
=93	=93	=93	=93	=93	=93	=93	=93	=93
8AL 8F 8AA\	(>4dd 4f 4d^>/	.	4.ryy	.	.	4.r	.	.
8A 8F 8AA\	.	.	.	.	.	.	.	.
8AJ 8F 8AA\	8cc 8f 8c/)	.	.	.	.	.	.	.
=94	=94	=94	=94	=94	=94	=94	=94	=94
.	&(8qee/	.	.	.	.	.	.	.
8G#XL 8BBn\	8ddL&) 8f/	.	4.ryy	.	.	4.r	.	.
8G# 8BB\	8cc#X 8f/	.	.	.	.	.	.	.
8G#J 8BB\	8ddJ 8f/	.	.	.	.	.	.	.
!!linebreak:original
=95	=95	=95	=95	=95	=95	=95	=95	=95
8AL 8F 8C\	(>4ff 4a 4f^/	.	4.ryy	.	.	4.r	.	.
!	!	!LO:HP:t=di-minuendo:ext=ud:problem:dynamics with extension lines	!	!	!	!	!	!
8A 8F 8C\	.	>	.	.	.	.	.	.
8AJ 8F 8C#X\	8a 8f/)	.	.	.	.	.	.	.
=96	=96	=96	=96	=96	=96	=96	=96	=96
.	(8qcc/	.	.	.	.	.	.	.
8B-L 8F 8D\	8b-L 8f/)	.	4.ryy	.	.	4.r	.	.
8c 8F 8Cn\	8a 8f/	.	.	.	.	.	.	.
8FJ 8BB-\	8gJ 8f 8d/	]	.	.	.	.	.	.
=97	=97	=97	=97	=97	=97	=97	=97	=97
8F 8AA/	8cc 8f 8c/	pp	4.ryy	.	.	4.r	.	.
(8f\L	(8ff\L	.	.	.	.	.	.	.
8c\J	8cc\J	.	.	.	.	.	.	.
=98	=98	=98	=98	=98	=98	=98	=98	=98
8d\L	8dd\L	.	4.ryy	.	.	4.r	.	.
8f\	8ff\	.	.	.	.	.	.	.
8c\J	8cc\J	.	.	.	.	.	.	.
=99	=99	=99	=99	=99	=99	=99	=99	=99
8d\L	8dd\L	.	4.ryy	.	.	4.r	.	.
8A\	8a\	.	.	.	.	.	.	.
8c\J	8cc\J	.	.	.	.	.	.	.
=100	=100	=100	=100	=100	=100	=100	=100	=100
8G\L	8g/L	.	4.ryy	.	.	4.r	.	.
8A\	8a/	.	.	.	.	.	.	.
8C\J	8c/J	.	.	.	.	.	.	.
=101	=101	=101	=101	=101	=101	=101	=101	=101
4F 4FF/)	8f/)	.	4.ryy	.	.	4.r	.	.
.	8aL 8f 8c'/	.	.	.	.	.	.	.
8r	8aJ 8f 8c'/	.	.	.	.	.	.	.
!!pagebreak:original
=102	=102	=102	=102	=102	=102	=102	=102	=102
!	!	!	!LO:TX:a:t=Stanisław.	!	!	!	!	!
4F\	8r	.	8A/	Lecz	.	4.ryy	.	.
.	8b-L 8f 8c'/	.	8B-/	kie-	.	.	.	.
8r	8aJ 8f 8c'/	.	8A/	-dy	.	.	.	.
=103	=103	=103	=103	=103	=103	=103	=103	=103
*	*^	*	*	*	*	*	*	*
4FF/	8.cc^/L	8rc	.	4.c\	mi	.	4.ryy	.	.
.	.	8fL 8c\	.	.	.	.	.	.	.
.	16b-/K	.	.	.	.	.	.	.	.
8r	8a/J	8fJ 8c\	.	.	.	.	.	.	.
*	*v	*v	*	*	*	*	*	*	*
=104	=104	=104	=104	=104	=104	=104	=104	=104
4F\	8r	.	8A/	wró-	.	4.ryy	.	.
.	8gL 8c 8A'/	.	8.G/	-ci-	.	.	.	.
8r	8fJ 8c 8A'/	.	.	.	.	.	.	.
.	.	.	16F/	-ło	.	.	.	.
=105	=105	=105	=105	=105	=105	=105	=105	=105
4GG/	8r	.	4F/	zdro-	.	4.ryy	.	.
.	8fL 8c 8B-'/	.	.	.	.	.	.	.
8r	8eJ 8c 8B-'/	.	8E/	-wie,	.	.	.	.
=106	=106	=106	=106	=106	=106	=106	=106	=106
4G\	8g/L	.	8G/	w za-	.	4.ryy	.	.
.	8g 8d 8B-'/	.	8D/	-ci-	.	.	.	.
8r	8gJ 8e 8B-'/	.	8E/	-szu	.	.	.	.
=107	=107	=107	=107	=107	=107	=107	=107	=107
4C/	8r	.	4C/	tém,	.	4.ryy	.	.
.	8gL 8e 8B-'/	.	.	.	.	.	.	.
8r	8b-J 8g 8e 8c'/	.	8r	.	.	.	.	.
!!pagebreak:original
=108	=108	=108	=108	=108	=108	=108	=108	=108
4C 4CC/	&(8b-/L	.	4.r	.	.	4.ryy	.	.
.	8a&) 8e 8B-'/	.	.	.	.	.	.	.
8r	8gJ 8e 8B-'/	.	.	.	.	.	.	.
=109	=109	=109	=109	=109	=109	=109	=109	=109
*	*^	*	*	*	*	*	*	*
4FF/	(4g#X^/	8rc	.	4.r	.	.	4.ryy	.	.
.	.	8cL 8B-\	.	.	.	.	.	.	.
8r	8a:/)	8fJ: 8c: 8A\:	.	.	.	.	.	.	.
*	*v	*v	*	*	*	*	*	*	*
=110	=110	=110	=110	=110	=110	=110	=110	=110
4.F\	8a/L	.	8A/	ból	.	4.ryy	.	.
.	8b- 8f 8c'/	.	8.B-/	sroż-	.	.	.	.
.	8aJ 8f 8c'/	.	.	.	.	.	.	.
.	.	.	16A/	-szy	.	.	.	.
=111	=111	=111	=111	=111	=111	=111	=111	=111
4.AA/	8r	.	4.c\	tkwi	.	4.ryy	.	.
.	8ccL 8f 8c'/	.	.	.	.	.	.	.
.	8ccJ 8f 8c'/	.	.	.	.	.	.	.
=112	=112	=112	=112	=112	=112	=112	=112	=112
4.C/	(>8a'/L	.	8A/	w mej	.	4.ryy	.	.
.	8g 8c 8A'/)	.	8.G/	biéd-	.	.	.	.
.	8cJ 8A'/	.	.	.	.	.	.	.
.	.	.	16F/	-nej	.	.	.	.
=113	=113	=113	=113	=113	=113	=113	=113	=113
4.GG/	8r	.	4F/	gło-	.	4.ryy	.	.
.	8fL 8c 8B-'/	.	.	.	.	.	.	.
.	8eJ 8c 8B-'/	.	8E/	-wie	.	.	.	.
!!linebreak:original
=114	=114	=114	=114	=114	=114	=114	=114	=114
4.C/	8r	.	8G/	i	.	4.ryy	.	.
.	8gL 8d 8B-'/	.	8D/	w ser-	.	.	.	.
.	8gJ 8e 8B-'/	.	8E/	-cu	.	.	.	.
=115	=115	=115	=115	=115	=115	=115	=115	=115
4.EE/	8r	.	4C/	mém.	.	4.ryy	.	.
.	8cL 8B- 8G'/	.	.	.	.	.	.	.
.	8b-J 8g 8c'/	.	8r	.	.	.	.	.
=116	=116	=116	=116	=116	=116	=116	=116	=116
*	*^	*	*	*	*	*	*	*
*	*	*cue	*	*	*	*	*	*	*
*	*	*Xtuplet	*	*	*	*	*	*	*
4.C 4.CC/	(8b-\	24b-L/	.	4.r	.	.	4.ryy	.	.
.	.	24cc/	.	.	.	.	.	.	.
.	.	24b-/J	.	.	.	.	.	.	.
*	*	*Xcue	*	*	*	*	*	*	*
.	8aL 8e 8B-'/)	8ryy	.	.	.	.	.	.	.
.	8gJ 8e 8B-'/	8ryy	.	.	.	.	.	.	.
=117	=117	=117	=117	=117	=117	=117	=117	=117	=117
4.FF/	4a/	8rc	.	4.r	.	.	4.ryy	.	.
.	.	8fL 8A\	.	.	.	.	.	.	.
.	8a/	8fJ 8c\	.	.	.	.	.	.	.
*	*v	*v	*	*	*	*	*	*	*
=118	=118	=118	=118	=118	=118	=118	=118	=118
4.F\	8r	.	8A/	czas	.	4.ryy	.	.
.	8aL 8d 8A'/	.	8A/	ru-	.	.	.	.
.	8aJ 8d 8A'/	.	8A/	-szyć	.	.	.	.
=119	=119	=119	=119	=119	=119	=119	=119	=119
4.E\	8r	.	4A^>/	w dro-	.	4.ryy	.	.
.	8aL 8d 8B-'/	.	.	.	.	.	.	.
.	8gJ 8d 8B-'/	.	8G/	-gę,	.	.	.	.
!!linebreak:original
=120	=120	=120	=120	=120	=120	=120	=120	=120
4.E 4.AA/	8r	.	8G/	a	.	4.ryy	.	.
.	8aL 8c#X 8A'/	.	8.A^>/	czy-	.	.	.	.
.	8eJ 8c# 8A'/	.	.	.	.	.	.	.
.	.	.	16E/	-liż	.	.	.	.
=121	=121	=121	=121	=121	=121	=121	=121	=121
4D\	8r	.	4G^>/	mo-	.	4.ryy	.	.
.	8gL 8d 8A'/	.	.	.	.	.	.	.
8r	8fJ 8d 8A'/	.	8F/	-gę	.	.	.	.
=122	=122	=122	=122	=122	=122	=122	=122	=122
!	!	!	!	!	!LO:HP:a	!	!	!
8D 8DD/	(8b-/L	.	8B-\	od	<	4.ryy	.	.
8F\L	8a 8B-/)	.	8c\	was	.	.	.	.
8F\J	8gJ 8B-/	.	8d\	bez	[	.	.	.
=123	=123	=123	=123	=123	=123	=123	=123	=123
*	*^	*	*	*	*	*	*	*
!	!	!	!	!	!	!LO:HP:a	!	!	!
4C/	(4f^/	8rc	.	(4e-X\	za-	>	4.ryy	.	.
.	.	8B-L 8G\	.	.	.	.	.	.	.
8r	8e-X/)	8B-J 8G\	.	8E-X/)	-lu	]	.	.	.
*	*v	*v	*	*	*	*	*	*	*
=124	=124	=124	=124	=124	=124	=124	=124	=124
4F 4FF/	8r	.	8E-X/	od-	.	4.ryy	.	.
.	8fL 8c 8A'/	.	8.F^/	-da-	.	.	.	.
8r	8fJ 8c 8A'/	.	.	.	.	.	.	.
.	.	.	16C/	-lić	.	.	.	.
=125	=125	=125	=125	=125	=125	=125	=125	=125
4BB-\	8r	.	4D/	się,	.	4.ryy	.	.
.	8dL 8B- 8F<'/	.	.	.	.	.	.	.
8rFF	8dJ 8B- 8F<'/	.	8r	.	.	.	.	.
!!pagebreak:original
=126	=126	=126	=126	=126	=126	=126	=126	=126
!	!	!	!	!	!LO:HP:a	!	!	!
4.B-\	8r	<	8D/	gdy	<	4.ryy	.	.
.	8f 8d/L	.	8F/	po-	.	.	.	.
.	8b- 8f 8d/J	[	8B-\	-ko-	.	.	.	.
=127	=127	=127	=127	=127	=127	=127	=127	=127
*	*^	*	*	*	*	*	*	*
4.A\	(4dd^/	8rc	.	4d\	-cha-	.	4.ryy	.	.
.	.	8gL 8e-X\	.	.	.	.	.	.	.
.	8cc/)	8gJ 8e-\	.	8c\	-łem	[	.	.	.
=128	=128	=128	=128	=128	=128	=128	=128	=128	=128
!	!	!	!	!	!	!LO:DY:a	!	!	!
4.D\	8ee-X/L	8rc	f	8e-X\	u-	f	4.ryy	.	.
.	8.dd^/	8f#XL 8d\	.	8.d\	-czu-	.	.	.	.
.	.	8f#J 8d\	.	.	.	.	.	.	.
.	16cc/Jk	.	.	16c\	-ciem	.	.	.	.
=129	=129	=129	=129	=129	=129	=129	=129	=129	=129
!	!	!	!LO:HP:a	!	!	!LO:HP:a	!	!	!
4.G\	(4b-/	8rc	>	4B-\	ca-	>	4.ryy	.	.
.	.	8gL 8d\	.	.	.	.	.	.	.
.	8a/)	8dJ 8B-\	]	8A/	-lem	]	.	.	.
*	*v	*v	*	*	*	*	*	*	*
=130	=130	=130	=130	=130	=130	=130	=130	=130
4.BB-/	8g/L	p	8G/	te-	.	4.ryy	.	.
.	8f 8d-X 8B-/	.	8F/	-go	.	.	.	.
.	8gJ 8f 8d- 8B-/	.	8G/	a-	.	.	.	.
=131	=131	=131	=131	=131	=131	=131	=131	=131
4.C/	8r	.	4A/	-nio-	.	4.ryy	.	.
.	8aL 8f 8c 8A/	.	.	.	.	.	.	.
.	8aJ 8f 8c/	.	8A/	-ła	.	.	.	.
!!pagebreak:original
=132	=132	=132	=132	=132	=132	=132	=132	=132
*	*^	*	*	*	*	*	*	*
!	!	!	!	!	!	!LO:HP:a	!	!	!
8C'\L	16b-/LL	8rc	<	16B-/LL	co	<	4.ryy	.	.
.	16a/	.	.	16A/JJ	.	.	.	.	.
8c'\	16b-/	8gL 8e\	.	16B-\LL	chro-	.	.	.	.
.	16cc/	.	.	16c\JJ	.	.	.	.	.
8C'\J	16dd/	8b-J 8g\	.	16d\LL	-nił,	.	.	.	.
.	16ee/JJ	.	[	16e\JJ	.	[	.	.	.
=133	=133	=133	=133	=133	=133	=133	=133	=133	=133
!	!	!	!	!	!	!LO:DY:a	!	!	!
8FL 8C 8FF/	[4.ff/	8aL 8f\	f	[4.f\	mnie_	f	4.ryy	.	.
8F 8C 8AA/	.	8cc 8f\	.	.	.	.	.	.	.
8FJ 8C 8FF/	.	8aJ 8f\	.	.	.	.	.	.	.
=134	=134	=134	=134	=134	=134	=134	=134	=134	=134
8FL 8BB-\	16ff/LL]	8a-XL 8f\	mf	8f\]	.	.	4.ryy	.	.
.	16dd/	.	.	.	.	.	.	.	.
8F 8BB-\	16ff/	8a-\	.	8.d\	po-	.	.	.	.
.	16cc/	.	.	.	.	.	.	.	.
8B-J 8F 8BB-\	16dd/	8a-\J	.	.	.	.	.	.	.
.	16b-/JJ	.	.	16B-\	-ko-	.	.	.	.
=135	=135	=135	=135	=135	=135	=135	=135	=135	=135
8B-L 8E-X\	[4.ee-X/	8g\L	sf	[4.e-X\	-cha-	.	4.ryy	.	.
8B- 8G\	.	8b- 8e-X\	.	.	.	.	.	.	.
8B-J 8E-\	.	8gJ 8e-\	.	.	.	.	.	.	.
=136	=136	=136	=136	=136	=136	=136	=136	=136	=136
8A-X\L	16ee-/LL]	8g-X\L	mf	8e-\]	.	.	4.ryy	.	.
.	16cc/	.	.	.	.	.	.	.	.
8A-\	16ee-X/	8g-\	.	8.c\	-łem	.	.	.	.
.	16b-/	.	.	.	.	.	.	.	.
8A-\J	16cc/	8g-\J	.	.	.	.	.	.	.
.	16a-X/JJ	.	.	16A-X/	a-	.	.	.	.
!!linebreak:original
=137	=137	=137	=137	=137	=137	=137	=137	=137	=137
8A-XL 8D-X\	[4.dd-X/	8f\L	sf	[4.d-X\	-nio-	.	4.ryy	.	.
8d-X 8F\	.	8a-X\	.	.	.	.	.	.	.
8A-J 8D-\	.	8f\J	.	.	.	.	.	.	.
=138	=138	=138	=138	=138	=138	=138	=138	=138	=138
8GG\L	16dd-/LL]	4.f\	mf	8d-\]	.	.	4.ryy	.	.
.	16b-/	.	.	.	.	.	.	.	.
8d-X 8B- 8F\	16dd-X/	.	.	8B-\	-ła,	.	.	.	.
.	16a-X/	.	.	.	.	.	.	.	.
8d-J 8B- 8F\	16b-/	.	.	8G/	a-	.	.	.	.
.	16g/JJ	.	.	.	.	.	.	.	.
*	*v	*v	*	*	*	*	*	*	*
=139	=139	=139	=139	=139	=139	=139	=139	=139
!	!	!LO:DY:a	!	!	!LO:HP:a	!	!	!
8AL 8C'\	8ccL 8f'/	<	8c\	-nio-	<	4.ryy	.	.
8G#X 8C'\	8bn 8f'/	.	8B\	-ła	.	.	.	.
8AJ 8C'\	8ccJ 8f'/	[	8c\	co	[	.	.	.
=140	=140	=140	=140	=140	=140	=140	=140	=140
.	8qee/	.	8qqe/	.	.	.	.	.
*ped	*	*	*	*	*	*	*	*
!	!	!LO:HP:a	!	!	!LO:HP:a	!	!	!
8B-L 8G 8C/	(>4dd 4f;/	sf >	4d;\	chro-	>	4.ryy	.	.
16CC/K	.	.	.	.	.	.	.	.
16r;	.	.	.	.	.	.	.	.
*Xped	*	*	*	*	*	*	*	*
8GJ 8C/	8cc 8e/	]]	8c\	-nił	]	.	.	.
=141	=141	=141	=141	=141	=141	=141	=141	=141
!	!	!LO:HP:t=di-mi-nu-en:ext=ud:problem:dynamics with extention lines	!	!	!	!	!	!
8FF\L	4f/)	>	4F/	mnie.	.	4.ryy	.	.
8c 8A 8F\	.	.	.	.	.	.	.	.
8cJ 8A 8F\	8r	.	8r	.	.	.	.	.
=142	=142	=142	=142	=142	=142	=142	=142	=142
*	*^	*	*	*	*	*	*	*
8cL 8A 8F\	8ff/L	4.ee-X 4.cc\	.	4.r	.	.	4.ryy	.	.
.	8qaa-X/	.	.	.	.	.	.	.	.
8c 8A 8F\	(8gg-X/	.	.	.	.	.	.	.	.
8cJ 8A 8F\	8ff/J)	.	.	.	.	.	.	.	.
!!linebreak:original
=143	=143	=143	=143	=143	=143	=143	=143	=143	=143
8d-XL 8B- 8F\	8ff/L	4.dd-X 4.b-\	.	4.r	.	.	4.ryy	.	.
.	8qaa-X/	.	.	.	.	.	.	.	.
8d- 8B- 8F\	(8gg-X/	.	.	.	.	.	.	.	.
8d-J 8B- 8F\	8ff/J)	.	.	.	.	.	.	.	.
=144	=144	=144	=144	=144	=144	=144	=144	=144	=144
.	(<8qff/	.	]	.	.	.	.	.	.
8g-XL 8F\	8ee-X'/L)	8b-\L	.	4.r	.	.	4.ryy	.	.
8f 8F\	8dd-X'/	8b-\	.	.	.	.	.	.	.
8e-XJ 8F\	8cc'/J	8a\J	.	.	.	.	.	.	.
=145	=145	=145	=145	=145	=145	=145	=145	=145	=145
8dL 8F\	[4.ff/	(8b-\L	.	4.r	.	.	4.ryy	.	.
8d-X 8F\	.	8f\)	.	.	.	.	.	.	.
8cJ 8F 8E-X\	.	8aJ 8f'>\	.	.	.	.	.	.	.
*	*v	*v	*	*	*	*	*	*	*
=146||	=146||	=146||	=146||	=146||	=146||	=146||	=146||	=146||
*k[b-e-a-d-g-]	*k[b-e-a-d-g-]	*	*k[b-e-a-d-g-]	*	*	*k[b-e-a-d-g-]	*	*
*b-:	*b-:	*	*b-:	*	*	*b-:	*	*
*	*^	*	*	*	*	*	*	*
!	!	!	!LO:DY:rj	!	!	!	!LO:TX:a:t=Zuzia. (na stronie.)	!	!
8B-L 8D-\	8ff/]	8b- 8f\	p	4.ryy	.	.	8f/	Jak	.
8d- 8F\	8b-L 8f/	8rcyy	.	.	.	.	8b-\	ser-	.
8B-J 8D-\	8dd-J 8f/	8rcyy	.	.	.	.	8dd-\	-ce	.
*	*v	*v	*	*	*	*	*	*	*
=147	=147	=147	=147	=147	=147	=147	=147	=147
8BB-/	8ffL 8f\	.	4.ryy	.	.	4.ff\	drży!	.
8d-L 8B-\	8b- 8f\	.	.	.	.	.	.	.
8d-J 8B-\	8ffJ 8f\	.	.	.	.	.	.	.
!!pagebreak:original
=148	=148	=148	=148	=148	=148	=148	=148	=148
8g-L 8B-\	8ee-L 8b-\	.	4.ryy	.	.	8ee-\	wie-	.
8g- 8B-\	8dd- 8b-\	.	.	.	.	8dd-\	-rzyć	.
8g-J 8B-\	8ee-J 8b-\	.	.	.	.	8ee-\	téj	.
=149	=149	=149	=149	=149	=149	=149	=149	=149
8d-L 8B-\	8ffL 8b-\	.	4.ryy	.	.	4ff\	mo-	.
8d- 8B-\	8ff 8f\	.	.	.	.	.	.	.
8d-J 8B-\	8b-J 8f\	.	.	.	.	8b-\	-wie	.
=150	=150	=150	=150	=150	=150	=150	=150	=150
8d-L 8B-\	8dd-L 8en/	.	4.ryy	.	.	8dd-\	za-	.
8d- 8B-\	8cc 8e/	.	.	.	.	8cc\	-le-	.
8d-J 8B-\	8b-J 8e/	.	.	.	.	8b-\	-dwie	.
=151	=151	=151	=151	=151	=151	=151	=151	=151
8d-L 8B-\	8f/L	.	4.ryy	.	.	4f/	śmiem!	.
8d- 8B-\	8f/	.	.	.	.	.	.	.
8d-J 8B-\	8b-J 8f/	.	.	.	.	8r	.	.
=152	=152	=152	=152	=152	=152	=152	=152	=152
.	(8qdd-/	.	.	.	.	.	.	.
8e-L 8An\	8ccL) 8f/	.	4.ryy	.	.	4.r	.	.
8e- 8Gn\	8b- 8f/	.	.	.	.	.	.	.
8e-J 8A\	8ccJ 8f/	.	.	.	.	.	.	.
=153	=153	=153	=153	=153	=153	=153	=153	=153
*	*^	*	*	*	*	*	*	*
8d-L 8B-\	4.dd-/	8f\L	.	4.ryy	.	.	4.r	.	.
8d- 8B-\	.	8f\	.	.	.	.	.	.	.
8d-J 8B-\	.	8f\J	.	.	.	.	.	.	.
*	*v	*v	*	*	*	*	*	*	*
!!pagebreak:original
=154	=154	=154	=154	=154	=154	=154	=154	=154
8d-L 8B-\	8f/L	.	4.ryy	.	.	8f/	Ból	.
8d- 8B-\	8b- 8f/	.	.	.	.	8b-\	w pier-	.
8d-J 8B-\	8dd-J 8f/	.	.	.	.	8dd-\	-si	.
=155	=155	=155	=155	=155	=155	=155	=155	=155
8d-L 8B-\	8ffL 8f\	.	4.ryy	.	.	4.ff\	tkwi,	.
8d- 8B-\	8b- 8f\	.	.	.	.	.	.	.
8d-J 8B-\	8ffJ 8f\	.	.	.	.	.	.	.
=156	=156	=156	=156	=156	=156	=156	=156	=156
8cL 8B-\	8eenL 8gn\	.	4.ryy	.	.	8een\	a	.
8c 8B-\	8cc 8g\	.	.	.	.	8cc\	jak	.
8cJ 8B-\	8eeJ 8g\	.	.	.	.	8ee\	sie	.
=157	=157	=157	=157	=157	=157	=157	=157	=157
8d-L 8B-\	8ffL 8f\	.	4.ryy	.	.	(4ff\	zo-	.
8d- 8B-\	8f\	.	.	.	.	.	.	.
8d-J 8B-\	8b-J 8f\	.	.	.	.	8b-\)	-wie	.
=158	=158	=158	=158	=158	=158	=158	=158	=158
*	*^	*	*	*	*	*	*	*
*	*	*^	*	*	*	*	*	*	*
8d-L 8B-\	8dd-/L	(<4.g-</^^	8en\L	.	4.ryy	.	.	8dd-\	już	.
8d- 8B-\	8.cc/	.	8e\	.	.	.	.	8.cc\	te-	.
8d-J 8B-\	.	.	8e\J	.	.	.	.	.	.	.
.	16b-/Jk	.	.	.	.	.	.	16b-\	-raz	.
*	*	*v	*v	*	*	*	*	*	*	*
=159	=159	=159	=159	=159	=159	=159	=159	=159	=159
8d-L 8B-\	(4b-/	8f\L)	.	4.ryy	.	.	[4.b-\	wiem	.
8d- 8B-\	.	8f\	.	.	.	.	.	.	.
8d-J 8B-\	8dd-/)	8f\J	.	.	.	.	.	.	.
!!linebreak:original
=160	=160	=160	=160	=160	=160	=160	=160	=160	=160
8B-L 8G-\	8dd-/L	8f-X\L	.	4.ryy	.	.	8b-\]	.	.
8A- 8G-\	8cc-X/	8f-\	.	.	.	.	8r	.	.
8B-J 8G-\	8dd-/J	8f-\J	.	.	.	.	8r	.	.
=161	=161	=161	=161	=161	=161	=161	=161	=161	=161
8c-X\L	4.ee-/	8e-\L	<	4.ryy	.	.	4.r	.	.
8c-\	.	8g- 8e-\	.	.	.	.	.	.	.
8c-\J	.	8g-J 8e-\	[	.	.	.	.	.	.
*	*v	*v	*	*	*	*	*	*	*
=162	=162	=162	=162	=162	=162	=162	=162	=162
!	!	!LO:DY:b=1:rj	!	!	!	!LO:TX:a:t=(do Stanisława.)	!	!
8e-L 8c-X\	8g-\L	mf	4.ryy	.	.	8g-/	Spiesz-	.
8e- 8c-\	8cc-X 8g-\	.	.	.	.	8cc-X\	-no	.
8e-J 8c-\	8ee-J 8g-\	.	.	.	.	8ee-\	wam	.
=163	=163	=163	=163	=163	=163	=163	=163	=163
8e-L 8c-X\	8gg-L 8cc-X 8g-\	.	4.ryy	.	.	4gg-\	w dro-	.
8e- 8c-\	8cc- 8g-\	.	.	.	.	.	.	.
8e-J 8c-\	8gg-J 8cc- 8g-\	.	.	.	.	8gg-\	-ge,	.
=164	=164	=164	=164	=164	=164	=164	=164	=164
8d-L 8c-X\	8ffL 8a-\	.	4.ryy	.	.	8ff\	a	.
8d- 8c-\	8dd- 8a-\	.	.	.	.	8dd-\	czy-	.
8d-J 8c-\	8ffJ 8a-\	.	.	.	.	8ff\	-liż	.
=165	=165	=165	=165	=165	=165	=165	=165	=165
8e-L 8c-X\	8gg-L 8g-\	.	4.ryy	.	.	4gg-\	mo-	.
8e- 8c-\	8g-\	.	.	.	.	.	.	.
8e-J 8c-\	8cc-XJ 8g-\	.	.	.	.	8cc-X\	-gę	.
!!linebreak:original
=166	=166	=166	=166	=166	=166	=166	=166	=166
8c-XL 8F^\	8ee-L 8a-^\	.	4.ryy	.	.	8ee-\	bez	.
8d- 8F\	8dd- 8a-\	.	.	.	.	8dd-\	ża-	.
8dnJ 8F\	8cc-XJ 8a-\	.	.	.	.	8cc-X\	-lu	.
=167	=167	=167	=167	=167	=167	=167	=167	=167
8e-L 8G-\	8g-/L	.	4.ryy	.	.	4g-/	z wa-	.
8E-\	8g-/	.	.	.	.	.	.	.
8C-X\J	8cc-XJ 8g- 8e-/	.	.	.	.	8cc-X\	-mi	.
=168	=168	=168	=168	=168	=168	=168	=168	=168
.	8qee-/	.	.	.	.	.	.	.
8GG-\L	8dd-L 8f-X/	.	4.ryy	.	.	8dd-\	po-	.
8A- 8G-\	8cc-X 8f-/	.	.	.	.	8cc-X\	-żeg-	.
8B-J 8G-\	8dd-J 8f-/	.	.	.	.	8dd-\	-nać	.
=169	=169	=169	=169	=169	=169	=169	=169	=169
*	*^	*	*	*	*	*	*	*
8c-X\L	4.ee-/	8e-\L	.	4.ryy	.	.	4ee-\	się,	.
8c-\	.	8g- 8e-\	<	.	.	.	.	.	.
8c-\J	.	8g-J 8e-\	[	.	.	.	8r	.	.
*	*v	*v	*	*	*	*	*	*	*
=170	=170	=170	=170	=170	=170	=170	=170	=170
!	!	!	!	!	!	!LO:TX:a:i:t=con anima	!	!LO:HP:a
8d-L 8B-\	8ff-XL 8gn'\	mf <	4.ryy	.	.	8ff-X\	kie-	<
8d- 8B-\	8ff- 8g'\	.	.	.	.	8ff-\	-dy	.
8d-J 8A-\	8ff-J 8a-'\	[	.	.	.	8ff-\	z za-	[
=171	=171	=171	=171	=171	=171	=171	=171	=171
8d-L 8Gn\	(8ff-XL 8b-^\	.	4.ryy	.	.	4ff-X^\	-pa-	.
8d- 8G\	8b-\)	.	.	.	.	.	.	.
8d-J 8G\	8ee-J 8b-'\	.	.	.	.	8ee-\	-łem	.
!!pagebreak:original
=172	=172	=172	=172	=172	=172	=172	=172	=172
!	!	!	!	!	!	!	!	!LO:HP:a
8cL 8G-X'\	8ee-L 8an'\	<	4.ryy	.	.	8ee-\	u-	<
8c 8G-'\	8ee- 8a'\	.	.	.	.	8ee-\	-czu-	.
8cJ 8G-'\	8ee-J 8a'\	[	.	.	.	8ee-\	-ciem	[
=173	=173	=173	=173	=173	=173	=173	=173	=173
8c-XL 8F\	(8ee-L 8a-X^\	.	4.ryy	.	.	4ee-^\	ca-	.
8c- 8F\	8a-\)	.	.	.	.	.	.	.
8c-J 8F\	8ddnJ 8a-'\	.	.	.	.	8ddn\	-łem	.
=174	=174	=174	=174	=174	=174	=174	=174	=174
8B-L 8En\	8dd-XL 8gn\	.	4.ryy	.	.	8dd-X\	kto	.
8B- 8E^\	8dd- 8g^\	.	.	.	.	8dd-^\	wy-	.
8cJ 8E\	8ccJ 8g\	.	.	.	.	8cc\	-znał	.
=175	=175	=175	=175	=175	=175	=175	=175	=175
8d-L 8F\	8b-L 8f/	.	4.ryy	.	.	4b-\	że	.
8d- 8B-\	8b- 8f/	<	.	.	.	.	.	.
8d-J 8F\	8b-J 8f/	.	.	.	.	8b-\	tak	.
=176	=176	=176	=176	=176	=176	=176	=176	=176
!	!	!	!	!	!	!LO:TX:a:i:t=rallent.	!	!
8B-L 8D-\	8b-L 8f/	.	4.ryy	.	.	16b-/LL	ko-	.
!	!	!	!	!	!	!	!	!LO:HP:a
.	.	.	.	.	.	16an/JJ	.	<
8B- 8D-\	8b- 8f/	.	.	.	.	16b-\LL	-cha	.
.	.	.	.	.	.	16cc\JJ	.	.
8B-J 8BB-\	8dd-J 8f/	[	.	.	.	16dd-\LL	mnie,	.
.	.	.	.	.	.	16ee-\JJ	.	[
!!pagebreak:original
=177||	=177||	=177||	=177||	=177||	=177||	=177||	=177||	=177||
*k[b-]	*k[b-]	*	*k[b-]	*	*	*k[b-]	*	*
*F:	*F:	*	*F:	*	*	*F:	*	*
*ped	*	*	*	*	*	*	*	*
!	!	!	!LO:TX:a:t=Stanisław.	!	!	!LO:TX:a:t=Zuzia.	!	!LO:DY:a
8F 8FF/	8ff 8cc 8a 8f/	sf	4.r	.	.	([4.ff\	tak_	fp
!	!	!	!	!	!	!LO:TX:a:i:t=piu  lento	!	!
8cL 8F\	8aL 8f/	p	.	.	.	.	.	.
8cJ 8F\	8aJ 8f/	.	.	.	.	.	.	.
*Xped	*	*	*	*	*	*	*	*
=178	=178	=178	=178	=178	=178	=178	=178	=178
!	!	!	!	!	!	!	!	!
(<4.B- 4.F 4.BB-\	4.a-X 4.d^/	.	4.r	.	.	16ff\LL]	.	.
.	.	.	.	.	.	16dd\	.	.
.	.	.	.	.	.	16ff\	.	.
.	.	.	.	.	.	16cc\	.	.
.	.	.	.	.	.	16dd\	.	.
.	.	.	.	.	.	16b-\JJ	.	.
=179	=179	=179	=179	=179	=179	=179	=179	=179
8EE-X\L)	8r	.	4.r	.	.	[4.ee-X\	.	.
8B- 8E-X\	8gL 8e-X/	.	.	.	.	.	.	.
8B-J 8E-\	8gJ 8e-/	.	.	.	.	.	.	.
=180	=180	=180	=180	=180	=180	=180	=180	=180
(<4.A-X 4.E-X 4.AA-X\	4.g-X 4.c^/	.	4.r	.	.	16ee-\LL]	.	.
.	.	.	.	.	.	16cc\	.	.
.	.	.	.	.	.	16ee-X\	.	.
.	.	.	.	.	.	16b-\	.	.
.	.	.	.	.	.	16cc\	.	.
.	.	.	.	.	.	16a-X\JJ	.	.
=181	=181	=181	=181	=181	=181	=181	=181	=181
*ped	*	*	*	*	*	*	*	*
4D-X 4DD-X/)	8r	.	4.r	.	.	[4.dd-X\	.	.
.	8fL 8d-X 8A-X/	.	.	.	.	.	.	.
8r	8fJ 8d- 8A-/	.	.	.	.	.	.	.
*Xped	*	*	*	*	*	*	*	*
!!linebreak:original
=182	=182	=182	=182	=182	=182	=182	=182	=182
4BB-/	8r	.	4.r	.	.	16dd-\])	-!	.
.	.	.	.	.	.	16b-\LL	wy-	.
.	8fL 8d-X 8A-X/	.	.	.	.	16dd-X\	.	.
.	.	.	.	.	.	16a-X\JJ	.	.
8r	8dd-XJ 8b- 8f/	.	.	.	.	16b-/LL	-znał	.
.	.	.	.	.	.	16g/JJ	.	.
=183	=183	=183	=183	=183	=183	=183	=183	=183
!	!	!	!	!	!	!	!	!LO:HP:a
8AnL 8C\	8ccL 8f/	<	4.r	.	.	8cc\L	że	<
8G#X 8C\	8bn 8f/	.	.	.	.	8bn\J	.	.
8AJ 8C\	8ccJ 8f/	[	.	.	.	8cc\	tak	[
=184	=184	=184	=184	=184	=184	=184	=184	=184
!	!	!	!	!	!	!	!	!
.	.	.	.	.	.	8qee/	.	.
!	!	!	!	!	!	!	!	!LO:HP:a
4B- 4Gn 4C;\	(4dd 4f;/	sf >	4.r	.	.	4dd;\	ko-	>
8C 8CC/	8e 8B-/	]]	.	.	.	8cc\	-cha	]
=185	=185	=185	=185	=185	=185	=185	=185	=185
*ped	*	*	*	*	*	*	*	*
!	!LO:TX:a:B:t=Tempo I.	!	!	!	!	!	!	!
8FL 8C 8FF'/	4f 4A/)	.	4.r	.	.	4f/	mnie.	.
!	!LO:TX:a:i:t=con passione	!	!	!	!	!	!	!
8F 8C 8FF'/	.	f	.	.	.	.	.	.
8FJ 8C 8FF'/	[8aa [8cc [8a^^\	.	.	.	.	8r	.	.
=186	=186	=186	=186	=186	=186	=186	=186	=186
8FL 8C 8FF/	8aa]L 8cc] 8a\]	.	4.r	.	.	4.r	.	.
*Xped	*	*	*	*	*	*	*	*
8F 8C 8FF/	8.gg 8.cc 8.g^\	.	.	.	.	.	.	.
8FJ 8C 8FF/	.	.	.	.	.	.	.	.
.	16ffJk 16cc 16a 16f\	.	.	.	.	.	.	.
!!linebreak:original
=187	=187	=187	=187	=187	=187	=187	=187	=187
8GL 8C 8FF/	(4ff 4cc 4b- 4f^\	.	4.r	.	.	4.r	.	.
8G 8C 8FF/	.	.	.	.	.	.	.	.
8GJ 8C 8FF/	8ee 8cc 8b- 8e\)	.	.	.	.	.	.	.
=188	=188	=188	=188	=188	=188	=188	=188	=188
8GL 8C 8FF/	8ggL 8ee 8g\	.	4.r	.	.	4.r	.	.
8G 8C 8FF/	8.ff 8.dd 8.f^\	.	.	.	.	.	.	.
8GJ 8C 8FF/	.	.	.	.	.	.	.	.
.	16ddJk 16b- 16en\	.	.	.	.	.	.	.
=189	=189	=189	=189	=189	=189	=189	=189	=189
8CL 8FF/	4cc 4a 4f/	.	4.r	.	.	4.r	.	.
8C 8FF/	.	.	.	.	.	.	.	.
8FJ 8C 8FF/	8a 8f/	.	.	.	.	.	.	.
!	!	!	!LO:TX:a:t=* Drugi głos dowolnie.:footnote	!	!	!	!	!
=190	=190	=190	=190	=190	=190	=190	=190	=190
8FL 8C 8FF/	(8aL 8f\	p	8F/	Czyż	.	8a/	Czyż	.
8F 8C 8FF/	8cc 8a\)	.	8A/	ko-	.	8cc\	ko-	.
8FJ 8C 8FF/	8ffJ 8a'\	.	8A/	-chać	.	8ff\	-chać	.
=191	=191	=191	=191	=191	=191	=191	=191	=191
*	*^	*	*	*	*	*	*	*
8GL 8C 8FF^>/	(4ee 4cc/	4.e\	.	4c\	zbro-	.	4ee\	zbro-	.
8G 8C 8FF/	.	.	.	.	.	.	.	.	.
8GJ 8C 8FF/	8dd 8b-/	.	.	8B-\	-dnia?	.	8dd\	-dnia?	.
*	*v	*v	*	*	*	*	*	*	*
=192	=192	=192	=192	=192	=192	=192	=192	=192
8GL 8C 8FF/	8b-L 8e/')	.	8G/	już	.	8b-\	już	.
8G 8C 8FF/	8g 8e'/	.	8G/	od	.	8g/	od	.
8GJ 8C 8FF/	8ddJ 8b- 8e'/	.	8B-/	dnia	.	8dd\	dnia	.
!!pagebreak:original
=193	=193	=193	=193	=193	=193	=193	=193	=193
8FL 8C 8FF/	(>4cc 4a 4f^/	.	4A/	do	.	4cc\	do	.
8F 8C 8FF/	.	.	.	.	.	.	.	.
8FJ 8C 8FF/	8a 8f/)	.	8F/	dnia	.	8a/	dnia	.
=194	=194	=194	=194	=194	=194	=194	=194	=194
8AL 8FF'/	8ccL 8f'/	.	8C/	od-	.	8cc\	od-	.
8G 8FF'/	8cc 8e'/	.	8C/	-włócz-	.	8cc\	-włócz-	.
8G-XJ 8FF'/	8ccJ 8e-X'/	.	8C/	-my	.	8cc\	-my	.
=195	=195	=195	=195	=195	=195	=195	=195	=195
*^	*	*	*	*	*	*	*	*
(4F^/	8FF\L	8ccL 8d^/	.	4D^/	roz-	.	4cc^\	roz-	.
.	8FF\	8cc 8d/	.	.	.	.	.	.	.
8En/	8FF\J	8b-J 8d-X/	.	8D-X/	-łą	.	8b-\	-łą	.
=196	=196	=196	=196	=196	=196	=196	=196	=196	=196
4D#X/	8FF\L	8aL 8c/	.	4C/	cze-	.	4a/	cze-	.
.	8FF\	8a 8c/	.	.	.	.	.	.	.
8E/	8FF\J	8gJ 8B-/	.	8E 8BB-/	-nia	.	8g/	-nia	.
*v	*v	*	*	*	*	*	*	*	*
=197	=197	=197	=197	=197	=197	=197	=197	=197
8F 8FF/)	8f 8A/	.	4F 4AA/	czas,	.	4f/	czas,	.
8cL 8A 8F\	8r	p	.	.	.	.	.	.
8cJ 8A 8F\	8r	.	8r	.	.	8r	.	.
!!linebreak:original
=198	=198	=198	=198	=198	=198	=198	=198	=198
!	!	!	!	!	!	!	!	!LO:HP:a
8d-XL 8B- 8F\	4.r	.	4.r	.	.	8f/	aż	<
8d- 8B- 8F\	.	.	.	.	.	8b-\	Bóg	.
8d-J 8B- 8F\	.	.	.	.	.	8dd-X\	łas-	.
=199	=199	=199	=199	=199	=199	=199	=199	=199
8cL 8A 8F\	4.r	.	4.r	.	.	[4.ff\	-ka-	[[
8c 8A 8F\	.	.	.	.	.	.	.	.
8cJ 8A 8F\	.	.	.	.	.	.	.	.
=200	=200	=200	=200	=200	=200	=200	=200	=200
!	!	!	!	!	!LO:DY:a	!	!	!
8d-XL 8B- 8F\	(8f/L	pp	8F/	aż	pp	4.ff\_	.	.
!	!	!	!	!	!	!	!	!LO:HP:a
8d- 8B- 8F\	8b-/	.	8B-\	Bog	.	.	.	>
8B-J 8G 8F\	8dd-X/J)	.	8d-X\	łas-	.	.	.	.
=201	=201	=201	=201	=201	=201	=201	=201	=201
8cL 8A 8F\	(4cc\	.	4.c\	-ka-	.	4ff\]	.	.
8c 8A 8F\	.	.	.	.	.	.	.	]
8cJ 8A 8F\	8f/)	.	.	.	.	8f/	-wy	.
=202	=202	=202	=202	=202	=202	=202	=202	=202
8B-L 8F\	8fL 8d-X/	.	8F/	-wy	.	8f/	na	.
8B- 8F\	8f 8d-/	.	8r	.	.	8b-\	ludz-	.
!	!	!	!	!	!	!	!	!LO:HP:a
8B-J 8F\	8fJ 8d-/	.	8r	.	.	8dd-X\	-kie	<
=203	=203	=203	=203	=203	=203	=203	=203	=203
(8F^\L	8fL 8c 8A/	.	4.r	.	.	[4.ff\	spra-	.
8C\)	8f 8c 8A/	.	.	.	.	.	.	.
8E-X'\J	8fJ 8c 8A/	.	.	.	.	.	.	[[
!!linebreak:original
=204	=204	=204	=204	=204	=204	=204	=204	=204
!LO:TX:t=P:problem:brak możliwości zakodowania tr bez bemola?	!	!	!	!	!LO:DY:a	!	!	!LO:HP:a
(8D-XT</L	8fL 8B-/	pp	8F/	na	pp	4.ff\_	.	>]
8C/)	8b- 8f 8B-/	.	8B-\	ludz-	.	.	.	.
8BB-/J	8dd-XJ 8b- 8f/	.	8d-X\	-kie	.	.	.	.
=205	=205	=205	=205	=205	=205	=205	=205	=205
*ped	*	*	*	*	*	*	*	*
8FF/	8cc 8a 8f/	.	8c\	spra-	.	8ff\]	.	.
!	!	!LO:HP:a:t=di-mi-nu-en-do:ext=ud:problem:dynamis with extension lines	!	!	!LO:HP:a:t=di-mi-nu-en-do:ext=ud:problem:dynamis with extension lines	!	!	!LO:HP:a:t=di-mi-nu-en-do:ext=ud:problem:dynamis with extension lines
8CL 8FF/	8fL 8A/	>	8A/	-wy	>	8f/	-wy	>
8CJ 8FF/	8fJ 8A/	.	8A/	przed	.	8f/	przed	.
=206	=206	=206	=206	=206	=206	=206	=206	=206
8CL 8FF/	8fL 8A/	.	(4A/	oł-	.	(4f/	oł-	.
8F 8C 8FF/	8a 8f 8A/	.	.	.	.	.	.	.
8FJ 8C 8FF/	8aJ 8f 8A/	.	8C/)	.	.	8a/)	.	.
=207	=207	=207	=207	=207	=207	=207	=207	=207
8F 8C 8FF/	8aL 8f 8A/	.	4F 4C/	-tarz	.	4a/	-tarz	.
8cL 8F\	8cc 8a 8f/	.	.	.	.	.	.	.
8cJ 8F\	8ccJ 8a 8f/	.	8A/	po-	.	8cc\	po-	.
=208	=208	=208	=208	=208	=208	=208	=208	=208
8cL 8F\	8ccL 8a 8f\	.	4A/	-wie-	.	4ff\	-wie-	.
*Xped	*	*	*	*	*	*	*	*
8f\	8ff 8a\	.	.	.	.	.	.	.
8f\J	8ggJ 8cc\	]]	8c\	-dzie	]	8gg 8cc\	-dzie	]]
!!pagebreak:original
*clefG2	*	*	*	*	*	*	*	*
=209	=209	=209	=209	=209	=209	=209	=209	=209
*ped	*	*	*	*	*	*	*	*
!	!	!	!	!	!LO:DY:a	!	!	!LO:DY:a
8ccL 8a 8f/	[4.aa [4.ff\	pp	[4.c\	nas_	p	[4.aa [4.a\	nas_	p
8cc 8a 8f/	.	.	.	.	.	.	.	.
8ccJ 8a 8f/	.	.	.	.	.	.	.	.
=210	=210	=210	=210	=210	=210	=210	=210	=210
8ddL 8a 8d/	8aa] 8ff\]	.	4.c\_	.	.	4.aa_ 4.a\_	.	.
*	*8va	*	*	*	*	*	*	*
8dd 8a 8d/	(8.aaL 8.ff\	.	.	.	.	.	.	.
8ddJ 8a 8d/	.	.	.	.	.	.	.	.
.	16aaaJk 16fff\)	.	.	.	.	.	.	.
=211	=211	=211	=211	=211	=211	=211	=211	=211
8ccL 8a 8f/	[4.aaa [4.fff\	.	4.c\_	.	.	4.aa_ 4.a\_	.	.
8cc 8a 8f/	.	.	.	.	.	.	.	.
8ccJ 8a 8f/	.	.	.	.	.	.	.	.
=212	=212	=212	=212	=212	=212	=212	=212	=212
8ddL 8a 8d/	8aaa] 8fff\]	.	4.c\_	.	.	4.aa_ 4.a\_	.	.
8dd 8a 8d/	(8.aaL 8.ff\	.	.	.	.	.	.	.
8ddJ 8a 8d/	.	.	.	.	.	.	.	.
.	16aaaJk 16fff\)	.	.	.	.	.	.	.
=213	=213	=213	=213	=213	=213	=213	=213	=213
8cc 8f/	8aaa 8fff\	.	4.c\]	_!	.	4aa] 4a\]	-!	.
*	*X8va	*	*	*	*	*	*	*
8r	(8.aL 8.f\	.	.	.	.	.	.	.
8r	.	.	.	.	.	8r	.	.
.	16aaJk 16ff\)	.	.	.	.	.	.	.
*Xped	*	*	*	*	*	*	*	*
*clefF4	*	*	*	*	*	*	*	*
=214	=214	=214	=214	=214	=214	=214	=214	=214
4.r	8aaL 8ff'\	.	8r	.	.	8r	.	.
.	8aJ 8f\	.	8r	.	.	8r	.	.
!	!	!	!	!	!LO:DY:a	!	!	!LO:DY:a
.	8r	.	8A/	po-	pp	8ff\	po-	pp
.	(16qqbn/LL	.	.	.	.	.	.	.
.	16qqcc/	.	.	.	.	.	.	.
.	16qqdd/JJ)	.	.	.	.	.	.	.
!!linebreak:original
=215	=215	=215	=215	=215	=215	=215	=215	=215
4.r	4.cc^TT\	pp	[4.A/	-wie-	.	[4.ff\	-wie-	.
=216	=216	=216	=216	=216	=216	=216	=216	=216
4.r	4.cc^TTT\	.	4.A/_	.	.	4.ff\_	.	.
=217	=217	=217	=217	=217	=217	=217	=217	=217
4.r	4.cc^TTT\	.	4.A/_	.	.	4.ff\_	.	.
=218	=218	=218	=218	=218	=218	=218	=218	=218
4.r	4.cc^TTT\	.	4A/]	.	.	(4ff\]	.	.
.	.	.	8F 8AA/	-dzie	.	8f/)	-dzie	.
=219	=219	=219	=219	=219	=219	=219	=219	=219
*	*^	*	*	*	*	*	*	*
!	!LO:TX:a:i:t=più mosso	!	!	!	!	!	!	!	!
8FL 8C 8FF/	[4.ff^^/	8aL 8f\	ff	4F 4AA/	nas!	.	4f/	nas!	.
8F 8C 8AA/	.	8cc 8f\	.	.	.	.	.	.	.
8FJ 8C 8FF/	.	8aJ 8f\	.	8r	.	.	8r	.	.
=220	=220	=220	=220	=220	=220	=220	=220	=220	=220
*ped	*	*	*	*	*	*	*	*	*
8C 8CC/	16ff/LL]	8b- 8g\	.	4.r	.	.	4.r	.	.
.	16ee/	.	.	.	.	.	.	.	.
*Xped	*	*	*	*	*	*	*	*	*
8dL 8B- 8F\	16gg/	8rc	.	.	.	.	.	.	.
.	16dd/	.	.	.	.	.	.	.	.
8cJ 8B- 8G\	16ee/	8rc	.	.	.	.	.	.	.
.	16cc/JJ	.	.	.	.	.	.	.	.
=221	=221	=221	=221	=221	=221	=221	=221	=221	=221
8FL 8C 8FF/	[4.ff^^/	8aL 8f\	.	4.r	.	.	4.r	.	.
8F 8C 8AA/	.	8cc 8f\	.	.	.	.	.	.	.
8FJ 8C 8FF/	.	8aJ 8f\	.	.	.	.	.	.	.
!!linebreak:original
=222	=222	=222	=222	=222	=222	=222	=222	=222	=222
*ped	*	*	*	*	*	*	*	*	*
8C 8CC/	16ff/LL]	8b- 8g\	.	4.r	.	.	4.r	.	.
.	16ee/	.	.	.	.	.	.	.	.
*Xped	*	*	*	*	*	*	*	*	*
8dL 8B- 8F\	16gg/	8rc	.	.	.	.	.	.	.
.	16dd/	.	.	.	.	.	.	.	.
8cJ 8B- 8G\	16ee/	8rc	.	.	.	.	.	.	.
.	16cc/JJ	.	.	.	.	.	.	.	.
=223	=223	=223	=223	=223	=223	=223	=223	=223	=223
8F 8FF/	8ff/	8rc	.	4.r	.	.	4.r	.	.
8dL 8D'\	8bbnL 8aa-X 8ff 8bn'\	8rcyy	.	.	.	.	.	.	.
8cJ 8C'\	8cccJ 8aa- 8ff 8cc'\	8rcyy	.	.	.	.	.	.	.
*	*v	*v	*	*	*	*	*	*	*
=224	=224	=224	=224	=224	=224	=224	=224	=224
8BnL 8BBn'\	8dddL 8aa-X 8ff 8dd'\	.	4.r	.	.	4.r	.	.
8d 8D'\	8bbn 8aa- 8ff 8bn'\	.	.	.	.	.	.	.
8cJ 8C'\	8cccJ 8aa- 8ff 8cc'\	.	.	.	.	.	.	.
=225	=225	=225	=225	=225	=225	=225	=225	=225
8Bn 8BBn\	8ddd 8aa-X 8ff 8dd\	.	4.r	.	.	4.r	.	.
8r	8r	.	.	.	.	.	.	.
8r	8r	.	.	.	.	.	.	.
=226	=226	=226	=226	=226	=226	=226	=226	=226
4c 4C\	8ee 8cc 8b-X 8g\	.	4.r	.	.	4.r	.	.
.	8r	.	.	.	.	.	.	.
8r	8r	.	.	.	.	.	.	.
=227	=227	=227	=227	=227	=227	=227	=227	=227
4F 4C 4FF/	4ff 4cc 4a 4f\	.	4.r	.	.	4.r	.	.
8r	8r	.	.	.	.	.	.	.
==	==	==	==	==	==	==	==	==
*-	*-	*-	*-	*-	*-	*-	*-	*-
!!!system-decoration: s1,s2{(s3,s4)}
!!!RDF**kern: > = above
!!!RDF**kern: < = below
!!!ENC: Solarz Mateusz
!!!END: 2022-09-28
!!!ENC: Krzysztof Stępień
!!!END: 2022-11-04
!!!YEC: Copyright 2022 Narodowy Instytut Fryderyka Chopina (https://polishscores.org)
!!!YEM: License CC-BY-4.0 (https://creativecommons.org/licenses/by/4.0)
